X:1
T:K-K-K-Katy
M:6/8
L:1/8
K:C
 GAB| c3 G3-| G3 GFE| D3 A3-| A3 B2 A| G2 A BBA| G2 F E2 D| G6-| G3 GAB|\
 c3 G3-| G3| GFE| D3 A3-| A3 B2 A| G2 A B2 A| GGF E2 D| C6-| C3||
